icons/person-help.svg

<svg xmlns="http://www.w3.org/2000/svg" width="24" height="24" viewBox="0 0 24 24">
  <path d="M10,16 C12.9230769,16 15.8461538,16.9493754 15.9941334,19.3106425 L16,19.5 L16,20.5 C16,20.975 16,21.90125 15.142625,21.9926875 L15,22 L3,22 C2.1,22 2.01,21.19 2.001,20.6635 L2,19.5 C2,17.0641026 4.84812623,16.0522682 7.76928134,16.0019808 L8,16 L10,16 Z M9,6 C11.209139,6 13,7.790861 13,10 C13,12.209139 11.209139,14 9,14 C6.790861,14 5,12.209139 5,10 C5,7.790861 6.790861,6 9,6 Z M18.0001686,8 C18.5524586,8 19.0001686,8.4477 19.0001686,9 C19.0001686,9.5523 18.5524586,10 18.0001686,10 C17.4478886,10 17.0001686,9.5523 17.0001686,9 C17.0001686,8.4477 17.4478886,8 18.0001686,8 Z M18.0001686,2 C18.5537486,2 19.1555886,2.16344 19.6376686,2.525 C20.1397686,2.90158 20.5001686,3.48991 20.5001686,4.25 C20.5001686,4.69838 20.3847686,5.07994 20.1710686,5.4004 C19.9664386,5.70737 19.7009186,5.91339 19.4787086,6.06154 C19.3700286,6.134 19.2594286,6.20036 19.1657686,6.25656 L19.1657686,6.25656 C19.0591686,6.32052 18.9769786,6.37001 18.9005986,6.42093 C18.7478286,6.52279 18.6695886,6.59803 18.6242286,6.66609 C18.3944886,7.01075 17.9288386,7.10391 17.5841786,6.87417 C17.2395186,6.64442 17.1463586,6.17878 17.3760986,5.83412 C17.5807386,5.52712 17.8462486,5.32107 18.0684786,5.1729 C18.1772086,5.10041 18.2878586,5.03402 18.3815586,4.9778 L18.3815586,4.9778 C18.4880486,4.9139 18.5702386,4.86441 18.6466286,4.81349 C18.7994086,4.71162 18.8776486,4.63639 18.9229986,4.56835 C18.9593586,4.51381 19.0001686,4.42662 19.0001686,4.25 C19.0001686,4.01009 18.9022286,3.84842 18.7376686,3.725 C18.5530786,3.58656 18.2799186,3.5 18.0001686,3.5 C17.6314086,3.5 17.4046986,3.59004 17.2599386,3.68654 C17.1104886,3.78617 17.0014986,3.92438 16.9209886,4.08541 C16.7357486,4.45589 16.2852386,4.60606 15.9147586,4.42082 C15.5442686,4.23558 15.3940986,3.78507 15.5793486,3.41459 C15.7488286,3.07562 16.0148386,2.71383 16.4278886,2.43846 C16.8456386,2.15996 17.3689286,2 18.0001686,2 Z"/>
</svg>

<svg xmlns="http://www.w3.org/2000/svg" viewBox="0 0 24 24">
  <path d="M10 16c2.92 0 5.85.95 6 3.31v1.19c0 .48 0 1.4-.86 1.5H3c-.9 0-.99-.81-1-1.34V19.5c0-2.44 2.85-3.45 5.77-3.5H10zM9 6a4 4 0 1 1 0 8 4 4 0 0 1 0-8zm9 2a1 1 0 1 1 0 2 1 1 0 0 1 0-2zm0-6c.55 0 1.16.16 1.64.52.5.38.86.97.86 1.73a2.03 2.03 0 0 1-1.02 1.81l-.31.2-.27.16a.96.96 0 0 0-.28.25.75.75 0 0 1-1.24-.84c.2-.3.47-.5.69-.66l.31-.2c.1-.06.19-.1.27-.16.15-.1.23-.17.27-.24a.54.54 0 0 0 .08-.32.6.6 0 0 0-.26-.52A1.26 1.26 0 0 0 18 3.5c-.37 0-.6.09-.74.19a1 1 0 0 0-.34.4.75.75 0 0 1-1.34-.68c.17-.33.43-.7.85-.97.42-.28.94-.44 1.57-.44z"/>
</svg>
